X:041 
T:Curragh Races (reel), The
F:file ID: cre.5/041curr_r
B:CRE5.154 (RÃÂÃÂÃÂÃÂ¡saÃÂÃÂÃÂÃÂ­ an Churraigh)
N:"Maid in the Cherry Tree" is related to this tune.
S:Tom Barrett (Kerry)
L:1/8
Q:180
M:C
R:reel
K:Gm
A|BGG2 AGG2|DGG2 cAFA|BGG2 Acfd|cAFA BGGA|
BG~G2 AG~G2|DGBG cAFA|B3G Acfd|cAFA BGG:|
A|B2dB fBdB|B2fd cAFA|B2dB fBdB|cAFA BGGA|
B2dB fBde|f3d cAFA|B2BG Acfd|cAFA BGG:|

%%%

